X:1
T: Good-bye, Mrs. Durkin
C:
R:Reel
Q: 232
K:F
M:4/4
L:1/8
A2 A2 G2 F2|G2 c2 c2 cd|e2 c2 B2 G2|A2 F4 FG|A2 A2 G2 F2|G2 c2 c2 cd|e2 c2 d2 e2|f6 z2|
f4 g2 f2|e2 c4 cd|e2 c2 B2 G2|A2 F4 FG|A2 A2 G2 F2|G2 c2 c2 cd|e2 c2 B2 G2|F6 FG|
A2 A2 G2 F2|G2 c2 c2 cd|e2 c2 B2 G2|A2 F4 FG|A2 A2 G2 F2|G2 c2 c2 cd|e2 c2 d2 e2|f6 z2|
f4 g2 f2|e2 c4 cd|e2 c2 B2 G2|A2 F4 FG|A2 A2 G2 F2|G2 c2 c2 cd|e2 c2 B2 G2|F4 F4||
